!!!!SEGMENT: pl-wnifc--6817-n--001-001_katski-antoni--grande-fantaisie-sur-l-opera-de-verdi-le-trovatore-op-157-allegro-maestoso.krn
!!!cenid: 18xx:3902
!!!COM: Kątski, Antoni
!!!COM-rismID: pe30017994
!!!CDT: 1817-1899
!!!CNT:
!!!OPR: Grande fantaisie sur l’opera de Verdi Le Trovatore op. 157
!!!OTL: Allegro maestoso
!!!OMV: 001
!!!PDT:
!!!AGN: Secular; Fantasy
!!!YEC: Copyright 2022 Narodowy Instytut Fryderyka Chopina (https://polishscores.org)
!!!YEM: License CC-BY-4.0 (https://creativecommons.org/licenses/by/4.0)
!!!SMS-siglum: PL-Wnifc
!!!SMS-shelfmark: 6817/n
!!!SMS-shelfwork: 001-001 M
!!!SMS-variant:
!!!SMS-altvar:
!!!NIFC-rismSourceID: 1001159514
!!!NIFC-rismChildID: 1001159514
!!!NIFC-islandoraID: nifc:213680
!!!URL-pdf-islandora: https://repozytorium.nifc.pl/islandora/object/nifc%3A213680/datastream/PDF/view
!!!URL-scan: https://polish.musicsources.pl/pl/lokalizacje/galeria/druki-muzyczne/16936 @EN{Scan on Polish Music Sources Website} @PL{Skany w portalu Dziedzictwo Muzyki Polskiej w otwartym dostępie}
!!!IIIF:
!!!ONB-nifc:
!!!AIN: 2 piano
!!!key: C
**kern	**kern	**fing	**dynam
*part2	*part1	*	*
*staff2	*staff1	*	*
*I"Piano	*I"Piano	*	*
*I'P-no	*I'P-no	*	*
*Ipiano	*Ipiano	*	*
*ICklav	*ICklav	*	*
*clefF4	*clefG2	*	*
*k[]	*k[]	*	*
*C:	*C:	*	*
*M4/4	*M4/4	*	*
*met(c)	*met(c)	*	*
!	!LO:TX:a:t=Allegro maestoso.	!	!
8r	8r	.	.
8CC/ 8C	8c/	.	ff
(8.CT/L	(8.cT/L	.	.
32BB/LL	32B/LL	.	.
32C/JJJ)	32c/JJJ)	.	.
=1	=1	=1	=1
8GGG/L 8GG	8G/L	.	.
8CC/J 8C	8c/J	.	.
(8.C^^/L	8.cT/L	.	.
32BB/LL	32B/LL	.	.
32C/JJJ)	32c/JJJ	.	.
8GGT/L	8G^^/L	.	.
16CC/L 16C	16c/L	.	.
16DD/JJ 16D	16d/JJ	.	.
8EE^^/L 8E	8e^^/L	.	.
16DD/L 16D	16d/L	.	.
16CC/JJ 16C	16c/JJ	.	.
=2	=2	=2	=2
8DD/L 8D	8d/L	.	.
8GG/J	8G/J 8g	.	.
8DD/L 8D	8d/L	.	.
8GG/J	8G/J 8g	.	.
8DD/L 8D	8d/L	.	.
8GG/J	8G/J 8g	.	.
16r	16G/LL 16g	.	.
16FF/LL 16F	16r	.	.
16r	16E/JJ 16e	.	.
16DD/JJ 16D	16r	.	.
!LO:LB:g=original	!LO:LB:g=original	!	!
=3	=3	=3	=3
8r	4E</ 4e	.	.
8GGG\ 8GG	.	.	.
16r	16F</LL 16f	.	.
16EE\LL 16E	16r	.	.
16r	16D</JJ 16d	.	.
16CC\JJ 16C	16r	.	.
8r	4D</ 4d	.	.
8GGG\ 8GG	.	.	.
16r	16E</LL 16e	.	.
16DD\LL 16D	16r	.	.
16r	16C</JJ 16c	.	.
16BBB\JJ 16BB	16r	.	.
=4	=4	=4	=4
8r	8C</L 8c	.	.
16CC\LL	16E</L	.	.
16EE\JJ	16G</JJ	.	.
16GG\LL	16c</LL	.	.
16C\	16e/	.	.
16E\	16g/	.	.
16G\JJ	16cc/JJ	.	.
16c\LL	16ee\LL	.	.
16G\	16gg\	.	.
16E\ 16c	16ee\ 16ccc	.	.
16C\JJ	16eee\JJ	.	.
8C^^\L 8E 8G 8c	8ee^^\L 8aa#X 8eee	.	.
16D#X\L	16dd#X\L 16ddd#X	.	.
16E\JJ	16ee\JJ 16eee	.	.
=5	=5	=5	=5
8BBB/L 8EE 8GG 8BB	8b\L 8ee 8gg 8bb	.	.
8EE/J 8E	8ee\J 8eee	.	.
8qqFF#X/ 8qqF#X	8qff#X/ 8qfff#X	.	.
8EE^^/L 8E	8ee^^\L 8eee	.	.
16DD#X/L 16D	16dd#X\L 16ddd#X	.	.
16EE/JJ 16E	16ee\JJ 16eee	.	.
8BBB^^/L 8EE 8GG 8BB	8b^^\L 8ee 8gg 8bb	.	.
16EE/L 16E	16ee\L 16eee	.	.
16FFn/JJ 16Fn	16ffn\JJ 16fffn	.	.
8GG^^/L 8BB 8E 8G	8gg^^\L 8bb 8eee 8ggg	.	.
16FF/L 16F	16ff\L 16fff	.	.
16EE/JJ 16E	16ee\JJ 16eee	.	.
!LO:LB:g=original	!LO:LB:g=original	!	!
=6	=6	=6	=6
8FF#X\L 8BB 8D#X 8F	8ff#X\L 8bb 8ddd#X 8fff#X	.	.
8qAA#X/ 8qA#X	8qaa#X/ 8qaaa#X	.	.
8BB^^\J 8B	8bb^^\J 8bbb	.	.
8FF#\L 8BB 8D# 8F	8ff#\L 8ddd# 8fff#	.	.
8qAA#/ 8qA#	8qaa#/ 8qaaa#	.	.
8BB^^\J 8B	8bb^^\J 8bbb	.	.
8FF#\L 8BB 8D# 8F	8ff#\L 8ddd# 8fff#	.	.
8qAA#/ 8qA#	8qaa#/ 8qaaa#	.	.
8BB^^\J 8B	8bb^^\J 8bbb	.	.
16BB\LL 16D# 16F 16B	16bb\LL 16bbb	.	.
16AAn\ 16An	16aan\ 16aaan	.	.
16GG\ 16G	16gg\ 16ggg	.	.
16FF#\JJ 16F	16ff#\JJ 16fff#	.	.
=7	=7	=7	=7
8GG/L 8BB 8E 8G	8gg\L 8bb 8eee 8ggg	.	.
8BBB/J 8BB	8b\J 8bb	.	.
16AA^^/LL 16A	16aa^^\LL 16aaa	.	.
16GG/ 16G	16gg\ 16ggg	.	.
16FF#X/ 16F#X	16ff#X\ 16fff#X	.	.
16EE/JJ 16E	16ee\JJ 16eee	.	.
8FF#/L 8BB 8D#X 8F#	8ff#\L 8bb 8ddd#X 8fff#	.	.
8BBB/J 8BB	8b\J 8bb	.	.
16GG^^/LL 16G	16gg^^\LL 16ggg	.	.
16FF#/ 16F#	16ff#\ 16fff#	.	.
16EE/ 16E	16ee\ 16eee	.	.
16DD/JJ 16D#	16dd\JJ 16ddd#	.	.
=8	=8	=8	=8
4EE/ 4E	4ee\ 4eee	.	.
4EE/ 4E	16e'^^/LL	1	.
.	(16e/	2	.
.	16f#X/	.	.
.	16g/JJ)	.	.
4DD/ 4D	16d'^^/LL	1	.
.	(16d/	2	.
.	16e/	.	.
.	16f#/JJ)	.	.
4CC/ 4C	16c'^^/LL	1	.
.	(16c/	2	.
.	16d/	.	.
.	16e/JJ)	.	.
!LO:LB:g=original	!LO:LB:g=original	!	!
=9	=9	=9	=9
4BBB/ 4BB	16B'^^/LL	1	.
.	(16B/	2	.
.	16c/	.	.
.	16d/JJ)	.	.
4AAA/ 4AA	16A'^^/LL	1	.
.	(16A/	2	.
.	16B/	.	.
.	16c/JJ)	.	.
4GGG/ 4GG	4G/	.	.
8.AAT</L	8.A^^T</L	.	.
32GG/LL	32G/LL	.	.
32AA/JJJ	32A/JJJ	.	.
=10	=10	=10	=10
4BB/	4B/	.	.
8.E^^\L 8.e	16r	.	.
.	(16ee\LL	3	.
.	16ff#X\	4	.
16EE\Jk 16E	16g\JJ) 16gg	5	.
8.DD^^\L 8.D	16r	.	.
.	(16dd\LL	3	.
.	16ee\	.	.
16D\Jk 16d	16f\JJ) 16ff#	.	.
8.C^^\L 8.c	16r	.	.
.	(16cc\LL	3	.
.	16dd\	.	.
16CC\Jk 16C	16e\JJ) 16ee	.	.
=11	=11	=11	=11
8.BBB^^\L 8.BB	16r	.	.
.	(16b\LL	3	.
.	16cc\	.	.
16BB\Jk 16B	16d\JJ) 16dd	.	.
8.AA^^\L 8.A	16r	.	.
.	(16a\LL	3	.
.	16b\	.	.
16AAA\Jk 16AA	16c\JJ) 16cc	.	.
8GGG/L 8GG	4g^^</	.	.
8GG/J	.	.	.
8.AA^^T</L	8.a^^T</L	.	.
32GG/LL	32g/LL	.	.
32AA/JJJ	32a/JJJ	.	.
!LO:PB:g=original	!LO:PB:g=original	!	!
=12	=12	=12	=12
8BB\L	8b\L	.	.
8qAA#X/ 8qA#X	8qaa#X/ 8qaaa#X	.	.
*	*8va	*	*
8BB\J 8B	8bb\J 8bbb	.	.
8BB\L	8bb\L	.	.
8qAA#/ 8qA#	8qa#/ 8qaa#	.	.
*	*X8va	*	*
8BB\J 8B	8b\J 8bb	.	.
8BB/L	8b/L	.	.
8qAA#/	8qA/	.	.
8BBB/J 8BB	8B/J 8b	.	.
8BBB/L	8B/L	.	.
8qAA#/	8qa#/	.	.
8BB/J	8b/J	.	.
=13	=13	=13	=13
4BBB/	8bb\L	.	>
.	8qaa#X/	.	.
.	8bb\	.	.
.	8qaa#/	.	.
4r	8bb\	.	.
.	8qaa#/	.	.
.	8bb\J	.	.
.	8qaa#/	.	.
2r	8bb\L	.	.
.	8qaa#/	.	.
.	8bb\	.	.
.	8qaa#/	.	.
.	8bb\	.	.
.	8qaa#/	.	.
.	8bb\J	.	]]
=14	=14	=14	=14
.	8qaa#X/	.	pp
8GG\L 8D 8G	8b\L 8bb	.	.
.	8qaa#/	.	.
8B\ 8d 8g	8b\ 8bb	.	.
.	8qaa#/	.	.
8G\ 8B 8d	8b\ 8bb	.	.
.	8qaa#/	.	.
8B\J 8d 8g	8b\J 8bb	.	.
.	8qaa#/	.	.
8GG\L 8D 8G	8b\L 8bb	.	.
.	8qaa#/	.	.
8B\ 8d 8g	8b\J 8bb	.	.
8G\ 8B 8d	16bb'\LL	.	.
.	(16ccc\	.	.
8B\J 8d 8g	16ddd\	.	.
.	16eee\JJ)	.	.
!LO:LB:g=original	!LO:LB:g=original	!	!
=15	=15	=15	=15
.	8qaa#X/	.	pp
8GG\L 8D 8G	8b\L 8bb	.	.
.	8qaa#/	.	.
8B\ 8d 8g	8b\ 8bb	.	.
.	8qaa#/	.	.
8G\ 8B 8d	8b\ 8bb	.	.
.	8qaa#/	.	.
8B\J 8d 8g	8b\J 8bb	.	.
.	8qaa#/	.	.
8GG\L 8D 8G	8b\L 8bb	.	.
.	8qaa#/	.	.
8B\ 8d 8g	8b\J 8bb	.	.
8G\ 8B 8d	(16bb^^\LL	.	.
.	16ccc\	.	.
8B\J 8d 8g	16ddd\	.	.
.	16eee\JJ)	.	.
=16	=16	=16	=16
.	8qaa#X/	.	.
8GG\L 8D 8G	8b\L 8bb	.	.
.	8qaa#/	.	.
8B\ 8d 8g	8b\J 8bb	.	.
8G\ 8B 8d	(16ddd^^\LL	.	.
.	16eee\	.	.
8B\J 8d 8g	16fff#X\	.	.
.	16ggg\JJ)	.	.
8GG\L 8D 8G	8b\L 8bb	.	.
.	8qcc#X/ 8qccc#X	.	.
8B\ 8d 8g	8dd^^\J 8ddd	.	.
8G\	8a\L 8aan	.	.
.	8qccn/ 8qcccn	.	.
8c\J 8d 8f#X	8dd^^\J 8ddd	.	.
=17	=17	=17	=17
8GG\L 8D 8G	2g\ 2gg	.	.
8G\ 8B 8d	.	.	.
8D\ 8G 8B	.	.	.
8G\J 8B 8d	.	.	.
8GG\L 8D 8G	(16d\LL 16dd	.	.
.	16g\	2	.
8G\ 8B 8d	16b\	3	.
.	16dd\JJ	5	.
8D\ 8G 8B	16gg\LL	4	.
.	16bb\	.	.
8G\J 8B 8d	16ddd\	.	.
.	16ggg\JJ)	.	.
!LO:LB:g=original	!LO:LB:g=original	!	!
=18	=18	=18	=18
.	8qaaa#X/	.	.
*	*8va	*	*
8GG\L 8D 8G	8bb\L 8bbb	.	.
.	8qaaa#/	.	.
8B\ 8d 8g	8bb\ 8bbb	.	.
.	8qaaa#/	.	.
8G\ 8B 8d	8bb\ 8bbb	.	.
.	8qaaa#/	.	.
8B\J 8d 8g	8bb\J 8bbb	.	.
.	8qaaa#/	.	.
8GG\L 8D 8G	8bb\L 8bbb	.	.
.	8qaaa#/	.	.
8B\ 8d 8g	8bb\J 8bbb	.	.
8G\ 8B 8d	(16bbb\LL	.	.
.	16cccc\	.	.
8B\J 8d 8g	16dddd\	.	.
.	16eeee\JJ)	.	.
=19	=19	=19	=19
.	8qaaa#X/	.	.
8GG\L 8D 8G	8bb\L 8bbb	.	.
.	8qaaa#/	.	.
8B\ 8d 8g	8bb\ 8bbb	.	.
.	8qaaa#/	.	.
8G\ 8B 8d	8bb\ 8bbb	.	.
.	8qaaa#/	.	.
8B\J 8d 8g	8bb\J 8bbb	.	.
.	8qaaa#/	.	.
8GG\L 8D 8G	8bb\L 8bbb	.	.
.	8qaaa#/	.	.
8B\ 8d 8g	8bb\J 8bbb	.	.
8G\ 8B 8d	(16bbb\LL	.	.
.	16cccc\	.	.
8B\J 8d 8g	16dddd\	.	.
.	16eeee\JJ)	.	.
=20	=20	=20	=20
.	8qaaa#X/	.	.
8GG\L 8D 8G	8bb\L 8bbb	.	.
.	8qaaa#/	.	.
8B\ 8d 8g	8bb\J 8bbb	.	.
8G\ 8B 8d	(16dddd\LL	.	.
.	16eeee\	.	.
8B\J 8d 8g	16ffff#X\	.	.
.	16gggg\JJ)	.	.
8GG\L 8D 8G	8bb\L 8bbb	.	.
.	8qccc#X/ 8qcccc#X	.	.
8B\ 8d 8g	8ddd\J 8dddd	.	.
8G\	8aa\L 8aaa#	.	.
.	8qccc#/ 8qcccc#	.	.
8c\J 8d 8f#X	8ddd\J 8dddd	.	.
!LO:LB:g=original	!LO:LB:g=original	!	!
=21	=21	=21	=21
8G\L 8B 8d 8g	8gg\L 8ggg	.	.
*Xtuplet	*Xtuplet	*	*
24g\L	24gggg\L	.	.
24d\	24dddd\	.	.
24B\JJ	24bbb\JJ	.	.
24G\LL	24ggg\LL	.	.
24D\	24ddd\	.	.
24BB\	24bb\	.	.
*	*X8va	*	*
24GG\	24gg\	.	.
24BB\	24dd\	.	.
24D\JJ	24b\JJ	.	.
4GG^^/ 4G	4g^^/	.	.
8DD/L 8D	8d/L	.	.
8BBB/J 8BB	8B/J	.	.
=22	=22	=22	=22
4AA^^\ 4A	4a^^</	.	.
8FF#X/L 8F#X	8f#X/L	.	.
8DD/J 8D	8d/J	.	.
4BB^^\ 4B	4b^^</	.	.
8GG/L 8G	8g/L	.	.
8DD/J 8D	8d/J	.	.
=23	=23	=23	=23
4C^^\ 4c	4cc^^\	.	.
8AA\L 8A	8a/L	.	.
8FF#X\J 8F#X	8f#X/J	.	.
4D^^\ 4d	4dd^^\	.	.
8BB\L 8B	8b/L	.	.
8GG\J 8G	8g/J	.	.
=24	=24	=24	=24
4E^^\ 4e	4ee^^\	.	.
8C\L 8c	8cc/L	.	.
8AA\J 8A	8a/J	.	.
4FF#X/ 4F	4f#X/	.	.
4GG/ 4G	8.gT/L	.	.
.	32f#/LL	.	.
.	32g/JJJ	.	.
!LO:LB:g=original	!LO:LB:g=original	!	!
=25	=25	=25	=25
8AA/L 8A	8a\L	.	.
8DD/J 8FF#X 8AA 8D	8dd\J 8ff#X 8aa 8ddd	.	.
*	*8va	*	*
4DDD/ 4FFF#X 4AAA 4DD	4ddd\ 4fff# 4aaa 4dddd	.	.
*	*X8va	*	*
(8GG^^\L 8G	(8g^^\L 8gg	.	.
8BB\) 8D	8b\) 8dd	.	.
8DD`\ 8D	8d`\ 8dd	.	.
8BBB`\J 8BB	8B`\J 8b	.	.
=26	=26	=26	=26
(8AA^^\L 8A	(8a^^\L 8aa	.	.
8D\)	8dd\)	.	.
8FF#X`\ 8F#X	8f#X`\ 8ff#X	.	.
8DD`\J 8D	8d`\J 8dd	.	.
(8BB^^\L 8B	(8b^^\L 8bb	.	.
8D\) 8G	8dd\) 8gg	.	.
8GG`\ 8G	8g`\ 8gg	.	.
8EE`\J 8E	8e`\J 8ee	.	.
=27	=27	=27	=27
(8C^^\L 8c	(8cc^^\L 8ccc	.	.
8F#X\) 8A	8ff#X\J) 8aa	.	.
8AA`\ 8A	8a`\L 8aa	.	.
8FF`\J 8F#	8f#X`\J 8ff#	.	.
(8D^^\L 8d	(8dd^^\L 8ddd	.	.
8G\) 8B	8gg\J) 8bb	.	.
8BB`\ 8B	8b`\L 8bb	.	.
8GG`\J 8G	8g`\J 8gg	.	.
!LO:LB:g=original	!LO:LB:g=original	!	!
=28	=28	=28	=28
(8E^^\L 8e	(8ee^^\L 8eee	.	.
8A\) 8c	8aa\) 8ccc	.	.
8C`\ 8c	8cc`\ 8ccc	.	.
8AA`\J 8A	8a`\J 8aa	.	.
4FF#X/ 4F#X	4f#X\ 4ff#X	.	.
*	*tuplet	*	*
!	!LO:TUP:a	!	!
8GG\L 8G	(20g\LL 20gg	.	.
.	20aa\	.	.
.	20gg\	.	.
8BB\J 8B	.	.	.
.	20ff#\	.	.
.	20gg\JJ)	.	.
=29	=29	=29	=29
4D\ 4F#X 4A 4d	8a\L 8aa	.	.
*	*8va	*	*
.	8qcccc#X/	.	.
.	8ddd\ 8dddd	.	.
.	8qcccc#/	.	.
4DD/ 4FF#X 4AA 4D	8ddd\ 8dddd	.	.
.	8qcccc#/	.	.
.	8ddd\J 8dddd	.	.
.	8qcccc#/	.	.
4D\ 4F# 4A	8ddd\L 8dddd	.	.
.	8qcccc#/	.	.
.	8ddd\J 8dddd	.	.
8FFn\L 8Fn	16ddd\LL 16dddd	.	.
.	16cccn\ 16ccccn	.	.
8F\J 8A 8B 8d	16bb\ 16bbb	.	.
.	16aa\JJ 16aaa	.	.
=30	=30	=30	=30
8EE\L 8E	(8gg#X^^\L 8ggg#X	.	.
8G\J 8B#X 8d	8eee\J)	.	.
8FF\L 8F	16ddd\LL 16dddd	.	.
.	16ccc\ 16cccc	.	.
8F\J 8A 8B# 8d	16bb\ 16bbb	.	.
.	16aa\JJ 16aaa	.	.
8EE\L 8E	(8gg#^^\L 8ggg#	.	.
8E\J 8G 8B# 8d	8eee\J)	.	.
8FF\L 8F	16ddd\LL 16dddd	.	.
.	16ccc\ 16cccc	.	.
8F\J 8A 8B# 8d	16bb\ 16bbb	.	.
.	16aa\JJ 16aaa	.	.
!LO:LB:g=original	!LO:LB:g=original	!	!
=31	=31	=31	=31
8EE\L 8E	8gg#X\L 8ggg#X	.	.
8E\J 8e	8eee\J 8eeee	.	.
8C^^\L 8c	(16ccc^^\LL 16cccc	.	.
.	16aaa\J)	.	.
8E\J 8e	8eee\J 8eeee	.	.
8BB^^\L 8B	(16bb^^\LL 16bbb	.	.
.	16eee\J)	.	.
8E\J 8e	8eee\J 8eeee	.	.
8AA^^\L 8A	(16aa^^\LL 16aaa	.	.
.	16eee\J)	.	.
8E\J 8e	8eee\J 8eeee	.	.
*	*X8va	*	*
=32	=32	=32	=32
8GG#X^^\L 8G#X	(16g#X^^\LL 16gg#X	.	.
.	16ee\J)	.	.
8E\J 8e	8ee\J 8eee	.	.
8GGn^^\L 8Gn	(16gn^^\LL 16ggn	.	.
.	16ee\J)	.	.
8E\J 8e	8ee\J 8eee	.	.
8FF#X^^\L 8F#X	(16f#X^^\LL 16ff#X	.	.
.	16cc\J)	.	.
8E\J 8e	8ee\J 8eee	.	.
8FFn^^\L 8Fn	(16fn\LL 16ffn	.	.
.	16cc\J)	.	.
8E\J 8e	8ee\J 8eee	.	.
=33	=33	=33	=33
4EE/ 4GG#X 4BB 4E	4e^^\ 4g#X 4b 4ee	.	.
8qD#X/ 8qd#X	8qdd#X/ 8qddd#X	.	.
4E\ 4A 4c 4e	4ee\ 4aa 4ccc 4eee	.	.
4EE/ 4GG# 4BB 4E	4e^^\ 4ee	.	.
8qD#/ 8qd#	8qdd#/ 8qddd#	.	.
4E\ 4A 4c 4e	4ee\ 4aa 4ccc 4eee	.	.
=34	=34	=34	=34
4EE/ 4GG#X 4BB 4E	4e^^\ 4g#X 4b 4ee	.	.
8qD#X/ 8qd#X	8qdd#X/ 8qddd#X	.	.
4E\ 4A 4c 4e	4ee\ 4aa 4ccc 4eee	.	.
4EE/ 4GG# 4BB 4E	4e^^\ 4ee	.	.
8qD#/ 8qd#	8qdd#/ 8qddd#	.	.
4E\ 4A 4c 4e	4ee\ 4aa 4ccc 4eee	.	.
!LO:LB:g=original	!LO:LB:g=original	!	!
=35	=35	=35	=35
4EE/ 4GG#X 4BB 4E	4e/ 4g#X 4b 4ee	.	.
8qD#X/ 8qd#X	8qdd#X/ 8qddd#X	.	.
4E\ 4e	4ee\ 4eee	.	.
8qD#/ 8qd#	8qdd#/ 8qddd#	.	.
4E\ 4e	4ee\ 4eee	.	.
8qD#/ 8qd#	8qdd#/ 8qddd#	.	.
4E\ 4e	4ee\ 4eee	.	.
=36	=36	=36	=36
8qD#X/ 8qd#X	8qdd#X/ 8qddd#X	.	.
4E\ 4e	4ee\ 4eee	.	.
8qD#/ 8qd#	8qdd#/ 8qddd#	.	.
4E\ 4e	4ee\ 4eee	.	.
8qD#/ 8qd#	8qdd#/ 8qddd#	.	.
4E\ 4e	4ee\ 4eee	.	.
8qD#/ 8qd#	8qdd#/ 8qddd#	.	.
4E\ 4e	4ee\ 4eee	.	.
=37	=37	=37	=37
*^	*^	*	*
!	!	!LO:TX:b:t=tutta la forza.	!	!	!
*	*ped	*	*	*	*
4r	2CCC\ 2CC	2ee/ 2eee	4r	.	.
4GG/ 4C 4E 4G	.	.	4c\ 4e 4g 4cc	.	.
4r	2CCC\ 2CC	4.ee/ 4.eee	4r	.	.
4GG/ 4C 4E 4G	.	.	4c\ 4e 4g 4cc	.	.
.	.	8ee/ 8eee	.	.	.
=38	=38	=38	=38	=38	=38
4r	2CCC\ 2CC	4.ee/ 4.eee	4r	.	.
4GG/ 4C 4E 4G	.	.	4c\ 4e 4g 4cc	.	.
.	.	8dd/ 8ddd	.	.	.
4r	2CCC\ 2CC	4.cc/ 4.ccc	4r	.	.
4GG/ 4C 4E 4G	.	.	4c\ 4e 4g 4cc	.	.
*	*Xped	*	*	*	*
.	.	8a/ 8aa	.	.	.
!LO:LB:g=original	!	!LO:LB:g=original	!	!	!
=39	=39	=39	=39	=39	=39
*	*ped	*	*	*	*
4r	2CCC\ 2CC	4.g/ 4.gg	4r	.	.
4GG/ 4BB 4D 4F 4G	.	.	4B\ 4d 4f 4g 4b	.	.
.	.	8b/ 8bb	.	.	.
4r	2CCC\ 2CC	4.dd/ 4.ddd	4r	.	.
*	*Xped	*	*	*	*
4GG/ 4BB 4D 4F 4G	.	.	4B\ 4d 4f 4g 4b	.	.
.	.	8ff/ 8fff	.	.	.
=40	=40	=40	=40	=40	=40
*	*ped	*	*	*	*
4r	2CCC\ 2CC	2ee/ 2eee	4r	.	.
4GG/ 4C 4E 4G	.	.	4c\ 4e 4g 4cc	.	.
4r	2CCC\ 2CC	2cc/ 2ccc	4r	.	.
4GG/ 4C 4E 4G	.	.	4c\ 4e 4g 4cc	.	.
=41	=41	=41	=41	=41	=41
!	!	!LO:TX:b:t=tutta la forza.	!	!	!
4r	2CCC\ 2CC	2ee/ 2eee	4r	.	.
4GG/ 4C 4E 4G	.	.	4c\ 4e 4g 4cc	.	.
4r	2CCC\ 2CC	4.ee/ 4.eee	4r	.	.
4GG/ 4C 4E 4G	.	.	4c\ 4e 4g 4cc	.	.
.	.	8ee/ 8eee	.	.	.
=42	=42	=42	=42	=42	=42
4r	2CCC\ 2CC	4.ee/ 4.eee	4r	.	.
4GG/ 4C 4E 4G	.	.	4c\ 4e 4g 4cc	.	.
.	.	8dd/ 8ddd	.	.	.
4r	2CCC\ 2CC	4.cc/ 4.ccc	4r	.	.
*Xped	*	*	*	*	*
4GG/ 4C 4E 4G	.	.	4c\ 4e 4g 4cc	.	.
*	*ped	*	*	*	*
.	.	8a/ 8aa	.	.	.
=43	=43	=43	=43	=43	=43
4r	2CCC\ 2CC	4.g/ 4.gg	4r	.	.
4GG/ 4BB 4D 4F 4G	.	.	4B\ 4d 4f 4g 4b	.	.
.	.	8b/ 8bb	.	.	.
4r	2CCC\ 2CC	4.dd/ 4.ddd	4r	.	.
*	*Xped	*	*	*	*
4GG/ 4BB 4D 4F 4G	.	.	4B\ 4d 4f 4g 4b	.	.
*	*ped	*	*	*	*
.	.	8ff/ 8fff	.	.	.
=44	=44	=44	=44	=44	=44
4r	2CCC\ 2CC	2ee/ 2eee	4r	.	.
4GG/ 4C 4E 4G	.	.	4c\ 4e 4g 4cc	.	.
4r	2CCC\ 2CC	2cc/ 2ccc	4r	.	.
*	*Xped	*	*	*	*
4GG/ 4C 4E 4G	.	.	4c\ 4e 4g 4cc	.	.
*	*ped	*	*	*	*
*v	*v	*	*	*	*
*	*v	*v	*	*
=45	=45	=45	=45
8AA^^</L 8A	2cc\ 2ee 2aa 2ccc	.	.
8AAA/ 8AA	.	.	.
8AA/ 8A	.	.	.
8GG/J 8G	.	.	.
8FF^^</L 8F	2dd\ 2ff 2aa 2ddd	.	.
8FFF/ 8FF	.	.	.
8FF/ 8F	.	.	.
8DD/J 8D	.	.	.
*Xped	*	*	*
=46	=46	=46	=46
*ped	*	*	*
8GG^/L 8G	4b\ 4dd 4gg 4bb	.	.
8FF/ 8F	.	.	.
8EE^/ 8E	4cc\ 4ee 4gg 4ccc	.	.
8CC/J 8C	.	.	.
8FF^/L 8F	4a\ 4cc 4ff 4aa	.	.
8EE/ 8E	.	.	.
8DD^/ 8D	4b\ 4dd 4ff 4bb	.	.
8BBB/J 8BB	.	.	.
*Xped	*	*	*
!LO:PB:g=original	!LO:PB:g=original	!	!
=47	=47	=47	=47
8.EE/L 8.E	4e/ 4g#X 4b 4ee	.	.
16GG#X/K 16G#X	.	.	.
8.AA/ 8.A	4r	.	.
16BB/Jk 16B	.	.	.
8.EE/L 8.E	8.r	.	.
16EEE/K 16EE	16G#X/KL 16g#X	.	.
8.FFF#X/ 8.FF#X	8.A/ 8.a	.	.
16GGG/Jk 16GG#	16B/Jk 16b	.	.
=48	=48	=48	=48
8.AAA/L 8.AA	8.c\L 8.cc	.	.
16EE/K 16E	16g#X\K 16gg#X	.	.
8.FF#X/ 8.F#X	8.a\ 8.aa	.	.
16GG#X/Jk 16G#X	16b\Jk 16bb	.	.
8.AA/L 8.A	8.cc\L 8.ccc	.	.
16GGG#X/K 16GG#	16B\K 16b	.	.
8.AAA/ 8.AA	8.c\ 8.cc	.	.
16BBB/Jk 16BB	16d\Jk 16dd	.	.
=49	=49	=49	=49
8.CC/L 8.C	8.e\L 8.ee	.	.
16GG#X/K 16G#X	16b\K 16bb	.	.
8.AA/ 8.A	8.cc\ 8.ccc	.	.
16BB/Jk 16B	16dd\Jk 16ddd	.	.
8.C/L 8.c	8.ee\L 8.eee	.	.
16BBB/K 16BB	16d\K 16dd	.	.
8.CC/ 8.C	8.e\ 8.ee	.	.
16DD/Jk 16D	16f\Jk 16ff	.	.
!LO:LB:g=original	!LO:LB:g=original	!	!
=50	=50	=50	=50
8.EE\L 8.E	8.g\L 8.gg	.	.
16BB\K 16B	16dd\K 16ddd	.	.
8.C\ 8.c	8.ee\ 8.eee	.	.
16D\Jk 16d	16ff\Jk 16fff	.	.
12E\L 12e	4gg\ 4ggg	.	.
12AA\ 12A	.	.	.
12GG\J 12G	.	.	.
*	*8va	*	*
12FF/L 12F	4bb\ 4ddd 4fff 4ggg 4bbb	.	.
12EE/ 12E	.	.	.
12DD/J 12D	.	.	.
=51	=51	=51	=51
4CC/ 4C	4ccc\ 4eee 4ggg 4cccc	.	.
*	*X8va	*	*
4G\ 4c 4e	4r	.	.
4CC/ 4C	2r	.	.
4G\ 4c 4e	.	.	.
=52	=52	=52	=52
*^	*	*	*
1B-X^^	4C\	2ee\ 2eee	.	.
.	4g\	.	.	.
.	4C\	4.ee\ 4.eee	.	.
.	4g\	.	.	.
.	.	8ee\ 8eee	.	.
=53	=53	=53	=53	=53
2A^^/	4C\	4.ee\ 4.eee	.	.
.	4f#X\	.	.	.
.	.	8dd\ 8ddd	.	.
2A-X^^/	4C\	4.cc\ 4.ccc	.	.
.	4fn\	.	.	.
.	.	8a-X\ 8aa	.	.
!	!LO:LB:g=original	!LO:LB:g=original	!	!
=54	=54	=54	=54	=54
2G^/	4C\	4.g\ 4.gg	.	.
.	4d\	.	.	.
.	.	8b\ 8bb	.	.
2B^/	4C\	4.dd\ 4.ddd	.	.
.	4d\	.	.	.
.	.	8ff\ 8fff	.	.
=55	=55	=55	=55	=55
1c^	4C\	2ee\ 2eee	.	.
.	4G\ 4e	.	.	.
.	4C\	2cc\ 2ccc	.	.
.	4G\ 4e	.	.	.
=56	=56	=56	=56	=56
1B-X^	4C\	2ee\ 2eee	.	.
.	4g\	.	.	.
.	4C\	4.ee\ 4.eee	.	.
.	4g\	.	.	.
.	.	8ee\ 8eee	.	.
=57	=57	=57	=57	=57
2A^/	4C\	4.ee\ 4.eee	.	.
.	4f#X\	.	.	.
.	.	8dd\ 8ddd	.	.
2A-X^/	4C\	4.cc\ 4.ccc	.	.
.	4fn\	.	.	.
.	.	8a-X\ 8aa-X	.	.
!	!LO:LB:g=original	!LO:LB:g=original	!	!
=58	=58	=58	=58	=58
2G^/	4C\	4.g\ 4.gg	.	.
.	4d\	.	.	.
.	.	8b\ 8bb	.	.
2B^/	4C\	4.dd\ 4.ddd	.	.
.	4d\	.	.	.
.	.	8ff\ 8fff	.	.
=59	=59	=59	=59	=59
1c^	4C\	2ee\ 2eee	.	.
.	4G\ 4e	.	.	.
.	4C\	2cc\ 2ccc	.	.
.	4G\ 4e	.	.	.
*v	*v	*	*	*
=60	=60	=60	=60
*	*^	*	*
2CC/ 2C	2ee^^/	4r	.	.
.	.	4e\ 4g 4cc	.	p
2CC#X/ 2C#X	4.ee^^/	4r	.	.
.	.	4e\ 4g 4b-X	.	.
.	8ee^^/	.	.	.
=61	=61	=61	=61	=61
2DD/ 2D	4.ee^^/	4r	.	.
.	.	4f\ 4a	.	.
.	8dd^^/	.	.	.
2DD/ 2F#X	4.cc^^/	4r	.	.
.	.	4c\ 4d 4f#X	.	.
.	8a^^/	.	.	.
!LO:LB:g=original	!LO:LB:g=original	!	!	!
=62	=62	=62	=62	=62
2GG/ 2G	4.g^^/	4r	.	.
.	.	4B\ 4d 4fn	.	.
.	8b^^/	.	.	.
2GG/ 2G	4.dd^^/	4r	.	.
.	.	4f\ 4g 4b	.	.
.	8ff^^/	.	.	.
=63	=63	=63	=63	=63
2CC/ 2C	2ee^^/	4r	.	pp
.	.	4e\ 4g 4cc	.	.
2r	4cc^^/	4r	.	.
.	4r	4c\ 4e 4g	.	.
*	*v	*v	*	*
=64	=64	=64	=64
*^	*	*	*
4r	2AAA\ 2AA	2e^^/	.	pp
4E/ 4G 4c#X	.	.	.	.
4r	2AAA#X\ 2AA#X	4.e^^/	.	.
4E/ 4G 4c#	.	.	.	.
.	.	8e^^/	.	.
=65	=65	=65	=65	=65
4r	2BBB\ 2BB	4.e^^/	.	.
4E/ 4G#X	.	.	.	.
.	.	8d^^/	.	.
4r	2CC\ 2C	4.c^^/	.	.
4E/ 4A	.	.	.	.
.	.	8A^^/	.	.
!LO:LB:g=original	!	!LO:B:g=original	!	!
=66	=66	=66	=66	=66
4r	2BBB\ 2BB	4.G^^/	.	.
4D/	.	.	.	.
.	.	8B^^/	.	.
4r	2GGG\ 2GG	4.d^^/	.	.
4D/ 4G 4B	.	.	.	.
.	.	8f^^/	.	.
*v	*v	*	*	*
=67	=67	=67	=67
2CC/ 2C	2E/ 2G 2c 2e	.	.
8.r	8.r	.	.
16E\KL	16G#X/KL	.	.
8.F#X\	8.A/	.	.
16G#X\Jk	16B/Jk	.	.
=68	=68	=68	=68
4A\	4c/	.	.
4A^^\	4c^^/	.	.
8.r	8.r	.	.
16G#X\KL	16B/KL	.	.
8.A\	8.c/	.	.
16B\Jk	16d/Jk	.	.
=69	=69	=69	=69
4c\	4e/	.	.
4c^^\	4e^^/	.	.
8.r	8.r	.	.
16B\KL	16d/KL	.	.
8.c\	8.e/	.	.
16d\Jk	16f/Jk	.	.
!LO:LB:g=original	!LO:LB:g=original	!	!
=70	=70	=70	=70
*	*^	*	*
4e\	4g/	2ryy	.	.
4r	4r	.	.	.
2G\ 2d	2bt/	2f\	.	.
*	*v	*v	*	*
.	16qqa/LL	.	.
.	16qqb/JJ	.	.
=71	=71	=71	=71
4C\ 4G 4c	4e/ 4cc	.	.
4r	4r	.	.
8.r	8.r	.	.
16EE\KL	16G#X</KL	.	.
8.FF#X\	8.A</	.	.
16GG\Jk	16B</Jk	.	.
=72	=72	=72	=72
4AA/	4c/	.	.
4AA/	4c/	.	.
8.r	8.r	.	.
16GG\KL	16BB</KL	.	.
8.AA\	8.C</	.	.
16BB\Jk	16D</Jk	.	.
=73	=73	=73	=73
4C\	4E</	.	.
4C\	4E</	.	.
8.r	8.r	.	.
16BB\KL	16D#X</KL	.	.
8.C\	8.E</	.	.
16GG\Jk	16F#X</Jk	.	.
!LO:LB:g=original	!LO:LB:g=original	!	!
=74	=74	=74	=74
4CC\ 4EE	8.E</L 8.G<	.	.
.	16d#X\K	.	.
4r	(8.e\	.	.
.	16f#X\Jk	.	.
4C\ 4E 4A#X	8.e^^\L 8.g)	.	.
.	(16dd#X\K	.	.
4r	8.ee\	.	.
.	16ff#X\Jk)	.	.
=75	=75	=75	=75
4c\ 4e 4a#X	8.ee^^\L 8.gg	.	.
.	(16ddd#X\K	.	.
4r	8.eee\	.	.
.	16fff#X\Jk	.	.
2r	8.eee\L) 8.ggg	.	.
.	16D#X</K	.	.
.	8.E</	.	.
.	16F#X</Jk	.	.
=76	=76	=76	=76
4BBB\ 4BB	8.E<^^/L 8.G<	.	.
.	(16d#X\K	.	.
4r	8.e\	.	.
.	16f#X\Jk	.	.
4BB\ 4E 4G 4B	8.e^^\L) 8.g	.	.
.	(16dd#X\K	.	.
4r	8.ee\	.	.
.	16ff#X\Jk)	.	.
*clefG2	*	*	*
=77	=77	=77	=77
4B/ 4e 4g 4b	8.ee^^\L 8.gg	.	.
.	(16ddd#X\K	.	.
4r	8.eee\	.	.
.	16fff#X\Jk	.	.
*clefF4	*	*	*
8.r	8.eee\L) 8.ggg	.	ff
*	*8va	*	*
16d#X\KL	16ddd\K 16dddd#	.	.
8.e\	8.eee\ 8.eeee	.	.
16f#X\Jk	16fff\Jk 16ffff#	.	.
!LO:LB:g=original	!LO:LB:g=original	!	!
=78	=78	=78	=78
4A#X\ 4c#X 4e 4g	4ggg\ 4cccc#X 4eeee 4gggg	.	.
*	*X8va	*	*
!	!LO:TUP:a	!	!
12A#\L 12c# 12e	(12gg\L 12ccc# 12ggg	.	.
12A#\ 12c# 12e	12gg\ 12ccc# 12ggg	.	.
12A#\J 12c# 12e	12ff#X\J 12ccc# 12fff#X)	.	.
4A#\ 4c# 4e	4ee\ 4ccc# 4eee	.	.
!	!LO:TUP:a	!	!
12AA#X\L 12C#X 12E	(12g\L 12cc#X 12gg	.	.
12AA#\ 12C# 12E	12g\ 12cc# 12gg	.	.
12AA#\J 12C# 12F#X	12f#X\J 12cc# 12ff#)	.	.
=79	=79	=79	=79
4AA#X/ 4C#X 4G	4e/ 4cc#X 4ee	.	.
!	!LO:TX:a:t=pesante.	!	!
12CCn\L 12Cn	(>12E</L 12A#X< 12e	.	.
12CC\ 12C	12E</ 12A#< 12e	.	.
12CC\J 12C	12F#X</J 12A#< 12f#X)	.	.
8CC\L 8C	8G<^>/L 8g	.	.
8CC\ 8C	8G#X<^>/ 8g#X	.	.
8CC\ 8C	8A#<^>/ 8a	.	.
8CC\J 8C	8A#X<^>/J 8a#X	.	.
=80||	=80||	=80||	=80||
*k[f#]	*k[f#]	*	*
*	*^	*	*
!	!LO:TX:a:t=Andante maestoso.	!	!	!
4BBB^/ 4BB	4b^/	8r	.	pp
.	.	8B\L 8d#X	.	.
4BB^/	4b^/	8r	.	.
.	.	8B\J 8d#	.	.
*tuplet	*	*	*	*
!LO:TUP:b	!	!	!	!
(12BB^t/L	8.g^/L	8r	.	.
24AA#X/L	.	.	.	.
24BB/	.	8B\L 8dn	.	.
24D/	.	.	.	.
.	16a^/K	.	.	.
24C/JJ)	.	.	.	.
4BB^/	8.g^/	8r	.	.
.	.	8G\J 8B	.	.
.	16e^/Jk	.	.	.
!LO:LB:g=original	!LO:LB:g=original	!	!	!
=81	=81	=81	=81	=81
!LO:TUP:b	!	!	!	!
(12AAT/L	8.d^/L	8r	.	.
24GG#X^/L	.	.	.	.
24AA/	.	8F#\L 8c	.	.
24.C/	.	.	.	.
.	16f#^/K	.	.	.
48BB/JJk)	.	.	.	.
4AA/	8.a^/	8r	.	.
.	.	8d\J 8f#	.	.
.	16cc/Jk	.	.	.
!LO:TUP:b	!	!	!	!
(12GGn^T/L	4b^/	8r	.	.
24FF#/L	.	.	.	.
24GG/	.	8d\L 8g	.	.
24.BB/	.	.	.	.
48AA/JJk)	.	.	.	.
4GG/	4g/	8r	.	.
.	.	8B\J 8d	.	.
*	*v	*v	*	*
*	*clefF4	*	*
=82	=82	=82	=82
!	!LO:TX:b:t=rallentando e pesante.	!	!
*	*Xtuplet	*	*
(4BBB:/ 4BB:	12F#^^\L	.	pp
.	12B\ 12d	.	.
.	12f#\J	.	.
4DD#X:/ 4D#X:	12F#^^\L	.	.
.	12B\ 12d	.	.
.	12f#\J	.	.
4FFF#:/ 4FF#:	12F#^^\L	.	.
.	12E#X^^\	.	.
.	12F#^^\J	.	.
.	8qA#X/	.	.
4AAA#X:/) 4AA#X:	6G#X^^\	.	.
.	12F#^^\	.	.
=83	=83	=83	=83
4BBB/ 4BB	(6D#X\	.	.
.	12E\)	.	.
4r	4F#\	.	.
*Xtuplet	*	*	*
6AA/	2r	.	.
12BB/	.	.	.
4C/	.	.	.
=84	=84	=84	=84
(6BBB/	2.r;	.	.
12CC/)	.	.	.
4BBB/	.	.	.
4r;	.	.	.
==	==	==	==
*-	*-	*-	*-
!!!RDF**kern: > = above
!!!RDF**kern: < = below
!!!system-decoration: [(s1,s2)]
!!!ENC: Berenika Jozajtis
!!!END: 2022-07-27
!!!ENC: Julita Ruszuk
!!!END: 2022-09-08
